X:1165
T:Wapp at the Widow
A:Wyresdale, Lancashire
B:E and J Winder, 1835-41
L:1/8
M:6/8
N:this title is pencilled in on the back. Whoever wrote it (AH ) had access
N:to a clearer version than these photocopies, I can't see it.
O:England
Z:Richard Robinson 
%%TUNEURL: http://www.leeds.ac.uk/music/Info/RRTuneBk/gettune/00001161.html
%%ID:00001161
K:D
B2B dBG | A2A e2d | B2B dBG | B3 d2 :: \
(e/f/) | \
gfe dcB | A2A e2f |!gfe dBG | B3 d2(e/f/) | gfe dcB | A2A e2c | B2B dBG | B3 d2 ::
